images/martin-favicon.svg

<svg width="512" height="512" xmlns="http://www.w3.org/2000/svg"><defs><linearGradient id="a" x1="0%" y1="0%" x2="100%" y2="100%"><stop offset="0%" stop-color="#3498db"/><stop offset="100%" stop-color="#9b59b6"/></linearGradient><filter id="b" x="-20%" y="-20%" width="140%" height="140%"><feGaussianBlur stdDeviation="3" result="blur"/><feComposite in="SourceGraphic"/></filter></defs><rect x="16" y="16" width="480" height="480" rx="60" ry="60" fill="#0a1128"/><path d="M150 150h50l56 100 56-100h50v200h-50V220l-56 100-56-100v130h-50Z" fill="url(#a)" filter="url(#b)"/></svg>

<svg width="512" height="512" viewBox="0 0 512 512" xmlns="http://www.w3.org/2000/svg">
  <defs>
    <!-- 渐变定义 -->
    <linearGradient id="modernGradient" x1="0%" y1="0%" x2="100%" y2="100%">
      <stop offset="0%" stop-color="#3498db"/>
      <stop offset="100%" stop-color="#9b59b6"/>
    </linearGradient>
    
    <!-- 柔和的发光效果 -->
    <filter id="softGlow" x="-20%" y="-20%" width="140%" height="140%">
      <feGaussianBlur stdDeviation="3" result="blur"/>
      <feComposite operator="over" in="SourceGraphic"/>
    </filter>
  </defs>

  <!-- 圆角矩形背景 -->
  <rect x="16" y="16" width="480" height="480" rx="60" ry="60" fill="#0a1128"/>
  
  <!-- 主体字母 M -->
  <path d="M150,150 L200,150 L256,250 L312,150 L362,150 L362,350 L312,350 L312,220 L256,320 L200,220 L200,350 L150,350 Z" 
    fill="url(#modernGradient)"
    filter="url(#softGlow)"/>
</svg>
